X: 1
T: Don Tremaine's Reel
O: RJ R-38
O: New England
M: C|
S: Roaring Jelly collection
R: reel
K: D
FG |\
"D"ABAG FADF | "G"GFGA BcdB | "A"Aceg fcec | "D"dAFB A2FG |
"D"ABAG FADF | "G"GFGA BcdB | "A"Aceg fcec | "D"d2d2 d2 :|
|: ef |\
"G" gage "D"fgfd | "A"efec "D"dAef | "G"gage "D"fgfd | "A"ea2b  a2ef |
"G" gage "D"fgfd | "A"efec "D"dAFD | "G"G2EG "D"FEDF | "A"EDCE "D"D2 :|
